X:1
T:5 Songs from the Chinese Poets, 1st Series
T:Under the Moon
T:To my Friend Alvin Langdon Coburn 
T:Five Songs from the Chinese Poets, 1st Series
T:Granville Bantock
T:3. Under the Moon (Clair de Lune) 
T:Launcelot Cranmer-Byng after Li Tai Po 
T:Creative Commons copyright waiver (CC0 1.0 Universal)
T:Creative Commons copyright waiver (CC0 1.0 Universal)
T:Creative Commons copyright waiver (CC0 1.0 Universal)
C:Granville Bantock
Z:Li Tai Po
Z:Creative Commons copyright waiver (CC0 1.0 Universal)
%%score ( 1 2 ) { ( 3 6 ) | ( 4 5 ) }
L:1/8
Q:1/4=100
M:3/4
K:C
V:1 treble nm="Voice"
V:2 treble 
V:3 treble nm="Piano"
V:6 treble 
V:4 bass 
V:5 bass 
V:1
"^Andantino" z6 |[Q:1/4=96] z6[Q:1/4=88][Q:1/4=80] | %2
w: ||
w: ||
[Q:1/4=100] z2"^Mistake in IMSLP edition:\na-circumflex is correct\nin \"p\nâ\n - le\"\n"!p! (3C C C"^quasi ad lib." C C | %3
w: Un- der the cres- cent|
w: Sous le pâ- le crois-|
"^Note to transcriber:\nFor the French lyrics we follow the standard\nof starting a new system with a dash when the\nword starts on the previous system. (See mm7-8)\n" C4 D2 | %4
w: moon’s faint|
w: \- sant de|
"^sost." E6- |!<(! E2- E E!<)! (3E E E |!>(! E3 E E!>)! E | %7
w: glow|_ _ The wash- er- man’s|bat re- sounds a-|
w: lu-|ne, _ S’en- tend le bat-|toir du la- van-|
"^Not to transcriber:\nFor English lyrics we follow the IMSLP\nversion's method of hyphenating words\nthat continue on the next system\n" D4- D z | %8
w: \- far _|
w: \- dier, _|
"^accel."[Q:1/4=104] z6[Q:1/4=108][Q:1/4=112] | %9
w: |
w: |
[Q:1/4=116] z2[Q:1/4=120] z2"^Tempo IO."!p! (3z G G | ^F4 D2 | _B4 B2 |"^dolciss." _B6- | %13
w: And the|au- tumn|breeze sighs|ten-|
w: Et l’au-|\- tom- ne|pleu- re|ten-|
[Q:1/4=96] (3B c _A z2 z2 |"^poco accel." z6[Q:1/4=104][Q:1/4=108][Q:1/4=112] |[Q:1/4=116] z6 | %16
w: * der- ly.|||
w: * dre- ment.|||
"^Largamente."[Q:1/4=104] z2!mf!!<(! d2 _B2!<)! |!>(! =B3 B G2!>)! | z2!<(! =c2 ^G2!<)! | %19
w: But my|heart has gone|to the|
w: Mais mon|coeur s’en- fuit|vers les|
!>(! A3 A F2!>)! |[Q:1/4=102] z2 z!mp! D D D | E4 (3E E E | C4!<(!"^cresc." C2 | D4-!<)! D z | %24
w: Tar- tar war,|To bleak Kan-|suh _ and the|steppes of|snow, _|
w: camps tar- ta|Le noir Kan-|suh, _ les dé-|serts de|nei- ge,|
!f!"^Allargando" e2[Q:1/4=102] (dc) (_B^G) |[Q:1/4=98]!>(! (^F2 ^G2) E2!>)! | %26
w: Cal- ling _ my _|lov- * ver|
w: Sou- pi- * rant *|a- * près|
[Q:1/4=94]!>(! ^F2 D2!>)!!p! E2- |[Q:1/4=80] E z z2 !fermata!z2 |] %28
w: back to me.|_|
w: l’a- mou- reux.|_|
V:2
 x6 | x6 | x6 | x6 | x6 | x6 | x6 | x6 | x6 | x6 | x6 | x6 | x6 | x6 | x6 | x6 | x6 | x6 | x6 | %19
w: |||||||||||||||||||
w: |||||||||||||||||||
 x4 F F | x6 | x6 | x6 | x6 | x6 | x6 | x6 | x6 |] %28
w: |||||||||
w: * \-  res|||||||||
V:3
 z"^a piacere"!p!!<(! (!arpeggio![c'e']"_espress."[_bd'][_ac'][_g_b][e^g]!<)! | %1
 [d^f][e^g])([ce][df])([_Bd]!fermata![ce]) | z6 | z6 | z!p! ([CE]2 [CE]2 [CE]- | %5
 [CE] [CE]2 [CE]2 [CE]- | [CE])"_dim." ([DE]2 [DE]2 [DE]- | [DE] [DE]2 [DE]2 [DE]) | %8
!ppp!!>(![I:staff +1] (6:4:6(^C/F/A/[I:staff -1]=B/_e/g/)[I:staff +1] (6:4:6(=B,/_E/G/[I:staff -1]^c/f/a/)[I:staff +1] (6:4:6(^C/F/A/[I:staff -1]B/_e/g/) | %9
[I:staff +1] (6:4:6(B,/_E/G/[I:staff -1]^c/f/a/)[I:staff +1] (6:4:6(^c/f/a/"_morendo"[I:staff -1]b/_e'/!fermata!g'/)!>)! z2 | %10
 z!pp! ([D^F]2 [DF]2 [DF]- | [DF] [D^F]2 [DF]2 [DF]- | [DF])"_dim." ([E^F]2 [EF]2 [EF]- | %13
 [EF]!>(! [E^F]2 [EF]2!>)! [EF]) | %14
!ppp!!>(![I:staff +1] (6:4:6(_E/G/=B/[I:staff -1]_e/g/=b/)[I:staff +1] (6:4:6(D/^F/_B/[I:staff -1]d/^f/_b/)[I:staff +1] (6:4:6(_E/G/=B/[I:staff -1]_e/g/=b/)!>)! | %15
!pp![I:staff +1] (6:4:6(=E/^G/=c/!<(!"_cresc."[I:staff -1]=e/^g/!fermata!=c'/) z2[I:staff +1] (6:4:6(=F/A/^c/[I:staff -1]=f/a/^c'/)!<)! | %16
!p! ([d^f_bd']6 | [=B_eg=b]6 | [^Gc=e^g]6 | [A^c=f]6) |!p! ([D^F_Bd]6 | [E^G=ce]6 | %22
"_cresc." [CE^Gc]6 |!<(! [D^F_Bd]6)!<)! | ([ce]2 [_Bd][_Ac] [_G_B][E^G]) | %25
 ([D^F]2"_dim." [E^G]2) ([CE]2 |!>(! [D^F]2) ([_B,D]2!>)! [CE]2) | z2!pp! !fermata![^F_Bd]4 |] %28
V:4
 C,-[C,^G,CE]-"_sost." [C,G,CE]4- | [C,G,CE]6 | z6 | z6 | z2 (_A,2"_espress." E,2 | %5
 C,2 _A,,2 E,,2) | z2"_sost." z2 (_A,2- | _A,2 _B,2 C2) |[K:treble] x6 | x2 x!ped! x!ped-up! x2 | %10
[K:bass] z2 (_B,2"_espress." ^F,2 | D,2 _B,,2 ^F,,2) |!ped! z2 z2 (_B,2-!ped-up! | %13
!ped! B,2 C2 D2)!ped-up! |[K:treble] x6 | x6 | %16
[K:bass]!ped! .[D,,D,] ([^F,_B,D]2 [F,B,D]2 [F,B,D])!ped-up! | %17
!ped! .[_E,,_E,] ([G,=B,_E]2 [G,B,E]2 [G,B,E])!ped-up! | %18
!ped! .[=E,,=E,] ([^G,C=E]2 [G,CE]2 [G,CE])!ped-up! | %19
!ped! .[=F,,=F,] ([A,^C=F]2 [A,CF]2 [A,CF])!ped-up! | z2 ([_B,,_B,]2 [^F,,^F,]2 | %21
 [D,,D,]2 [_B,,,_B,,]2 [^F,,,^F,,]2) | z2 ([^G,,^G,]2 [E,,E,]2 | %23
 [C,,C,]2 [^G,,,^G,,]2 [E,,,E,,]2) |!f! [C,,,C,,]6- | [C,,,C,,]6- | [C,,,C,,]6- | %27
!p! !fermata![C,E,]6 |] %28
V:5
 x6 | x6 | x6 | x6 | x6 | x6 | z2 ([_B,,,_B,,]4 | [E,,,E,,]4-) [E,,,E,,] z |[K:treble] x6 | x6 | %10
[K:bass] x6 | x6 | z2 ([=C,,=C,]4 | [^F,,,^F,,]4- [F,,,F,,]) z |[K:treble] x6 | x6 |[K:bass] x6 | %17
 x6 | x6 | x6 | x6 | x6 | x6 | x6 | x6 | x6 | x6 | !fermata![C,,,C,,]6 |] %28
V:6
 x6 | x6 | x6 | x6 | x6 | x6 | x6 | x6 | x6 | x6 | x6 | x6 | x6 | x6 | x6 | x6 | x6 | x6 | x6 | %19
 x6 | x6 | x6 | x6 | x6 | !>!E2 !>!D2 !>!C2 |[I:staff +1] !>!_B,4 !>!_A,2- | A,2 !>!^F,4 | %27
 x2[I:staff -1] !fermata![_A,C]4 |] %28

